public/avatar/shoe/107.svg

<svg xmlns:xlink="http://www.w3.org/1999/xlink" height="38.3" width="36.05" xmlns="http://www.w3.org/2000/svg"><use height="16.65" transform="translate(7.85 11.95)" width="23.7" xlink:href="#a"/><defs><g id="a" fill-rule="evenodd"><path d="m3.4-2.25 1.25.1q1.4.85 2.05 3.55.6 2.1.65 4.1.65 1.5.3 2.35-.5 1.15-3.75 3.1-4.45 2.55-9.65 2.75-9.7.3-10.15-2.5l-.05-.75q0-1 .4-1.6V8.6q0-3.95 2.95-6.1l3.95-3.25q.3-.2.5-.85.3-1.1.7-1.25l2.2-.05q2 .3 3.1 1.5l3.3-.5 2.25-.35M1.8-.7l-3.55.45q.4.6.55 1.5 2.6.5 4.5-.55 1.4-.85.9-1.8-1.05.5-2.4.4M-5-1.4h-.7l-.9-.05-.15.3v.05l-.3.75-.1.2 1.3.2q1.6.35 2.8 1.5l.15.15-.15-.1q-1.3-.8-3-1.15L-7.45.3l-4.4 3.5q-2.2 1.8-2.2 4.45V9.4l1.45.9q2.2.9 5.95.7l1.6-.1-.65.1 3.35-.65q3.1-.75 5.75-2.6h.05l.5-.25.05-.05.05-.05L4 7.35l.55-.45.95-.8v.1l.05-.05v.05l.15-.15.1-.25.05-.1v-.4L5.8 3.75l-.25-1.8-.5-1.6q-.7.85-1.95 1.35l-2.65.55-2.3-.35-.15-.05Q-2.35.3-3.05-.55l-1.1-.8L-5-1.4h.15H-5m1.1 4 .15-.1-.45.45-1.3 1.15q-2.15 1.75-3.8 1.65l-.75-.15q2.6-.1 6.15-3m-2.4-1.35-4.4 3.4-.3-.1 4.45-3.45.25.15m3.25 9.85-.25.05q-4.15.75-7.85-.15-2.95-1.1-3.15-1.05-.4 0-.15.9.25.65 3.05 1.25 3.7.8 8.15.05l.3-.05v.05q1.9-.25 5.35-2.1l.2-.1.15-.1.25-.1q2.95-1.6 3.35-2.35l-.2-1.2L4.8 7.65h-.05q-3.4 2.5-7.8 3.4v.05M2.6 9.95l.4-.2-.4.2" fill="#1d1d24" transform="translate(15.95 2.9)"/><path d="m-7.05-.35-.05.15 1.2-.8q.45-.35.9-.4l.85.05 1.1.8q.7.85 1.05 2.4l.15.05H-2Q-2.3.45-3.05-.55q-.2-.05 0 2.1Q-4.25.4-5.85.05l-1.3-.2.1-.2M3.1 1.7Q4.35 1.2 5.05.35l.5 1.6.25 1.8.05 1.55v.2l-.05-.3V3.75l-.15.1-.1-1.4-.65.45-1.05-1.45-.15.1-.6.15m1.45 5.2L4 7.35V7.3l.55-.4m-1.15.85Q.75 9.6-2.35 10.35q2.35-.7 4.6-2L3.4 7.7v.05M-14.05 8.8v-.55q0-2.65 2.2-4.45l4.4-3.5 1.4.15q1.7.35 3 1.15l-.85 1q-3.55 2.9-6.15 3l.75.15q2.7.45 4.9-.45l4.05-1.85.1.05 1.7 1.6-.85.55-4.35 3.2q-3.35 1.9-6.45 1.3l-3.85-1.35m7.75-7.55-.25-.15L-11 4.55l.3.1 4.4-3.4m-3.05.6q-2 1.55-2.3 2.4l4.9-3.7-.7-.1-1.9 1.4m-.6 3.3q2.75-.8 5.45-2.65l-3.15 1.15q-1.05.35-2.3 1.5m-2.7-.1q-.85.95-.85 2.3 1.35-1.6 2.45-1.4-1.5-.5-1.6-.9M3.2 1.8l.7.75.45.7L2.2 4.6.45 3.05 3.2 1.8" fill="#ff0" transform="translate(15.95 2.9)"/><path d="m-2.95 12.1-.3.05q-4.45.75-8.15-.05-2.8-.6-3.05-1.25-.25-.9.15-.9.2-.05 3.15 1.05 3.7.9 7.85.15l.25-.05.1 1M4.8 7.65 6.15 6.2l.2 1.2q-.4.75-3.35 2.35L5.1 8.5q.3-.3.1-.65l-.4-.2" fill="#d7d7dc" transform="translate(15.95 2.9)"/><path d="m-2.95 12.1-.1-1v-.05q4.4-.9 7.8-3.4h.05l.4.2q.2.35-.1.65L3 9.75l-.25.1-.15.1-.2.1q-3.45 1.85-5.35 2.1v-.05" fill="#a4a4a7" transform="translate(15.95 2.9)"/><path d="m-1.85 1.9 2.3.35L3.1 1.7l.1.1L.45 3.05l-.75-.5-2-.5 1.95 1.4L-4.4 5.3q-2.2.9-4.9.45 1.65.1 3.8-1.65l1.3-1.15.45-.45-.15.1.85-1 .15.1-.15-.15q-.2-2.15 0-2.1Q-2.3.45-2 1.9h.15M5.5 6.1l-.95.8-.55.4-.05-.05 1.5-1.2.05.05m-10.55 4.8-1.6.1q-3.75.2-5.95-.7l-1.45-.9v-.6l3.85 1.35q3.1.6 6.45-1.3L.6 5.65l.85-.55 1.1 1.3-.7.6q-3.45 3.05-6.9 3.9m8.4-3.25.05.05-1.15.65 1.1-.7m2.3-3.8-.2.15-.55-1.1.65-.45.1 1.4m-.75.6L3.2 5.9l-1-1.3 2.15-1.35.15.25.4.95" fill="gold" transform="translate(15.95 2.9)"/><path d="M1.8-.7q1.35.1 2.4-.4.5.95-.9 1.8-1.9 1.05-4.5.55-.15-.9-.55-1.5L1.8-.7" fill="#4c3d00" transform="translate(15.95 2.9)"/><path d="M-2.35 10.35-5.7 11l.65-.1q3.45-.85 6.9-3.9l.7-.6.8 1.25-1.1.7q-2.25 1.3-4.6 2M5.45 4l.2-.15.15-.1V5.2L5.45 4" fill="#ff9500" transform="translate(15.95 2.9)"/><path d="m-6.6-1.45.9.05h.7q-.45.05-.9.4l-1.2.8.05-.15.3-.75v-.05l.15-.3m-3.35 6.6Q-8.7 4-7.65 3.65L-4.5 2.5q-2.7 1.85-5.45 2.65m.6-3.3 1.9-1.4.7.1-4.9 3.7q.3-.85 2.3-2.4m-3.3 3.2q.1.4 1.6.9-1.1-.2-2.45 1.4 0-1.35.85-2.3" fill="#fff" transform="translate(15.95 2.9)"/><path d="M5.85 5.5v.05l-.4-1.45-.55-1.05-.4.45-.15-.25-.45-.7-.7-.75-.1-.1.6-.15.15-.1L4.9 2.9 5.45 4l.35 1.2.05.3m-2.4 2.25H3.4V7.7l-.05-.05-.8-1.25-1.1-1.3-1.7-1.6-.1-.05-1.95-1.4 2 .5.75.5L2.2 4.6l1 1.3 1.7-1.45.3.75-.3-.75-.4-.95.55 1.2.15.5.25.85-1.5 1.2-.05-.05-.8-1.1-.45.35.8 1.3m-.8-1.3L1.6 5.2l.6-.35Q3.35 6.1 3.9 7.2l-.7-1.3.7 1.3q-.55-1.1-1.7-2.35l-.6.35 1.05 1.25" fill="#10cf03" transform="translate(15.95 2.9)"/><path d="M5.85 5.55v.15l-.05.05-.05.1-.2.3-.05.05v-.1l-.05-.05-.25-.85-.15-.5.4-.6.4 1.45M4 7.35l.05.05-.05.05-.05.05-.5.25-.8-1.3.45-.35.8 1.1.05.05.05.05v.05" fill="#009103" transform="translate(15.95 2.9)"/><path d="m5.8 5.8-.1.25-.15.15v-.05l.2-.3.05-.1v.05m-.35-1.7-.4.6-.55-1.2.4-.45.55 1.05" fill="#00b503" transform="translate(15.95 2.9)"/></g></defs></svg>

<?xml version="1.0" encoding="UTF-8" standalone="no"?>
<svg xmlns:xlink="http://www.w3.org/1999/xlink" height="38.3px" width="36.05px" xmlns="http://www.w3.org/2000/svg">
  <g transform="matrix(1.0, 0.0, 0.0, 1.0, 23.8, 14.85)">
    <use height="16.65" transform="matrix(1.0, 0.0, 0.0, 1.0, -15.95, -2.9)" width="23.7" xlink:href="#shape0"/>
  </g>
  <defs>
    <g id="shape0" transform="matrix(1.0, 0.0, 0.0, 1.0, 15.95, 2.9)">
      <path d="M3.4 -2.25 L4.65 -2.15 Q6.05 -1.3 6.7 1.4 7.3 3.5 7.35 5.5 8.0 7.0 7.65 7.85 7.15 9.0 3.9 10.95 -0.55 13.5 -5.75 13.7 -15.45 14.0 -15.9 11.2 L-15.95 10.45 Q-15.95 9.45 -15.55 8.85 L-15.55 8.6 Q-15.55 4.65 -12.6 2.5 L-8.65 -0.75 Q-8.35 -0.95 -8.15 -1.6 -7.85 -2.7 -7.45 -2.85 L-5.25 -2.9 Q-3.25 -2.6 -2.15 -1.4 L1.15 -1.9 3.4 -2.25 M1.8 -0.7 L-1.75 -0.25 Q-1.35 0.35 -1.2 1.25 1.4 1.75 3.3 0.7 4.7 -0.15 4.2 -1.1 3.15 -0.6 1.8 -0.7 M-5.0 -1.4 L-5.7 -1.4 -6.6 -1.45 -6.75 -1.15 -6.75 -1.1 -7.05 -0.35 -7.15 -0.15 -5.85 0.05 Q-4.25 0.4 -3.05 1.55 L-2.9 1.7 -3.05 1.6 Q-4.35 0.8 -6.05 0.45 L-7.45 0.3 -11.85 3.8 Q-14.05 5.6 -14.05 8.25 L-14.05 8.8 -14.05 9.4 -12.6 10.3 Q-10.4 11.2 -6.65 11.0 L-5.05 10.9 -5.7 11.0 -2.35 10.35 Q0.75 9.6 3.4 7.75 L3.45 7.75 3.95 7.5 4.0 7.45 4.05 7.4 4.0 7.35 4.55 6.9 5.5 6.1 5.5 6.2 5.55 6.15 5.55 6.2 5.7 6.05 5.8 5.8 5.85 5.7 5.85 5.65 5.85 5.55 5.85 5.5 5.85 5.3 5.8 3.75 5.55 1.95 5.05 0.35 Q4.35 1.2 3.1 1.7 L0.45 2.25 -1.85 1.9 -2.0 1.85 Q-2.35 0.3 -3.05 -0.55 L-4.15 -1.35 -5.0 -1.4 -4.85 -1.4 -5.0 -1.4 M-3.9 2.6 L-3.75 2.5 -4.2 2.95 -5.5 4.1 Q-7.65 5.85 -9.3 5.75 L-10.05 5.6 Q-7.45 5.5 -3.9 2.6 M-6.3 1.25 L-10.7 4.65 -11.0 4.55 -6.55 1.1 -6.3 1.25 M-3.05 11.1 L-3.3 11.15 Q-7.45 11.9 -11.15 11.0 -14.1 9.9 -14.3 9.95 -14.7 9.95 -14.45 10.85 -14.2 11.5 -11.4 12.1 -7.7 12.9 -3.25 12.15 L-2.95 12.1 -2.95 12.15 Q-1.05 11.9 2.4 10.05 L2.6 9.95 2.75 9.85 3.0 9.75 Q5.95 8.15 6.35 7.4 L6.15 6.2 4.8 7.65 4.75 7.65 Q1.35 10.15 -3.05 11.05 L-3.05 11.1 M2.6 9.95 L3.0 9.75 2.6 9.95" fill="#1d1d24" fill-rule="evenodd" stroke="none"/>
      <path d="M-7.05 -0.35 L-7.1 -0.2 -5.9 -1.0 Q-5.45 -1.35 -5.0 -1.4 L-4.15 -1.35 -3.05 -0.55 Q-2.35 0.3 -2.0 1.85 L-1.85 1.9 -2.0 1.9 Q-2.3 0.45 -3.05 -0.55 -3.25 -0.6 -3.05 1.55 -4.25 0.4 -5.85 0.05 L-7.15 -0.15 -7.05 -0.35 M3.1 1.7 Q4.35 1.2 5.05 0.35 L5.55 1.95 5.8 3.75 5.85 5.3 5.85 5.5 5.8 5.2 5.8 3.75 5.65 3.85 5.55 2.45 4.9 2.9 3.85 1.45 3.7 1.55 3.1 1.7 M4.55 6.9 L4.0 7.35 4.0 7.3 4.55 6.9 M3.4 7.75 Q0.75 9.6 -2.35 10.35 0.0 9.65 2.25 8.35 L3.4 7.7 3.4 7.75 M-14.05 8.8 L-14.05 8.25 Q-14.05 5.6 -11.85 3.8 L-7.45 0.3 -6.05 0.45 Q-4.35 0.8 -3.05 1.6 L-3.9 2.6 Q-7.45 5.5 -10.05 5.6 L-9.3 5.75 Q-6.6 6.2 -4.4 5.3 L-0.35 3.45 -0.25 3.5 1.45 5.1 0.6 5.65 -3.75 8.85 Q-7.1 10.75 -10.2 10.15 L-14.05 8.8 M-6.3 1.25 L-6.55 1.1 -11.0 4.55 -10.7 4.65 -6.3 1.25 M-9.35 1.85 Q-11.35 3.4 -11.65 4.25 L-6.75 0.55 -7.45 0.45 -9.35 1.85 M-9.95 5.15 Q-7.2 4.35 -4.5 2.5 L-7.65 3.65 Q-8.7 4.0 -9.95 5.15 M-12.65 5.05 Q-13.5 6.0 -13.5 7.35 -12.15 5.75 -11.05 5.95 -12.55 5.45 -12.65 5.05 M3.2 1.8 L3.9 2.55 4.35 3.25 2.2 4.6 0.45 3.05 3.2 1.8" fill="#ffff00" fill-rule="evenodd" stroke="none"/>
      <path d="M-2.95 12.1 L-3.25 12.15 Q-7.7 12.9 -11.4 12.1 -14.2 11.5 -14.45 10.85 -14.7 9.95 -14.3 9.95 -14.1 9.9 -11.15 11.0 -7.45 11.9 -3.3 11.15 L-3.05 11.1 -2.95 12.1 M4.8 7.65 L6.15 6.2 6.35 7.4 Q5.95 8.15 3.0 9.75 L5.1 8.5 Q5.4 8.2 5.2 7.85 L4.8 7.65" fill="#d7d7dc" fill-rule="evenodd" stroke="none"/>
      <path d="M-2.95 12.1 L-3.05 11.1 -3.05 11.05 Q1.35 10.15 4.75 7.65 L4.8 7.65 5.2 7.85 Q5.4 8.2 5.1 8.5 L3.0 9.75 2.75 9.85 2.6 9.95 2.4 10.05 Q-1.05 11.9 -2.95 12.15 L-2.95 12.1" fill="#a4a4a7" fill-rule="evenodd" stroke="none"/>
      <path d="M-1.85 1.9 L0.45 2.25 3.1 1.7 3.2 1.8 0.45 3.05 -0.3 2.55 -2.3 2.05 -0.35 3.45 -4.4 5.3 Q-6.6 6.2 -9.3 5.75 -7.65 5.85 -5.5 4.1 L-4.2 2.95 -3.75 2.5 -3.9 2.6 -3.05 1.6 -2.9 1.7 -3.05 1.55 Q-3.25 -0.6 -3.05 -0.55 -2.3 0.45 -2.0 1.9 L-1.85 1.9 M5.5 6.1 L4.55 6.9 4.0 7.3 3.95 7.25 5.45 6.05 5.5 6.1 M-5.05 10.9 L-6.65 11.0 Q-10.4 11.2 -12.6 10.3 L-14.05 9.4 -14.05 8.8 -10.2 10.15 Q-7.1 10.75 -3.75 8.85 L0.6 5.65 1.45 5.1 2.55 6.4 1.85 7.0 Q-1.6 10.05 -5.05 10.9 M3.35 7.65 L3.4 7.7 2.25 8.35 3.35 7.65 M5.65 3.85 L5.45 4.0 4.9 2.9 5.55 2.45 5.65 3.85 M4.9 4.45 L3.2 5.9 2.2 4.6 4.35 3.25 4.5 3.5 4.9 4.45" fill="#ffd700" fill-rule="evenodd" stroke="none"/>
      <path d="M1.8 -0.7 Q3.15 -0.6 4.2 -1.1 4.7 -0.15 3.3 0.7 1.4 1.75 -1.2 1.25 -1.35 0.35 -1.75 -0.25 L1.8 -0.7" fill="#4c3d00" fill-rule="evenodd" stroke="none"/>
      <path d="M-2.35 10.35 L-5.7 11.0 -5.05 10.9 Q-1.6 10.05 1.85 7.0 L2.55 6.4 3.35 7.65 2.25 8.35 Q0.0 9.65 -2.35 10.35 M5.45 4.0 L5.65 3.85 5.8 3.75 5.8 5.2 5.45 4.0" fill="#ff9500" fill-rule="evenodd" stroke="none"/>
      <path d="M-6.6 -1.45 L-5.7 -1.4 -5.0 -1.4 Q-5.45 -1.35 -5.9 -1.0 L-7.1 -0.2 -7.05 -0.35 -6.75 -1.1 -6.75 -1.15 -6.6 -1.45 M-9.95 5.15 Q-8.7 4.0 -7.65 3.65 L-4.5 2.5 Q-7.2 4.35 -9.95 5.15 M-9.35 1.85 L-7.45 0.45 -6.75 0.55 -11.65 4.25 Q-11.35 3.4 -9.35 1.85 M-12.65 5.05 Q-12.55 5.45 -11.05 5.95 -12.15 5.75 -13.5 7.35 -13.5 6.0 -12.65 5.05" fill="#ffffff" fill-rule="evenodd" stroke="none"/>
      <path d="M5.85 5.5 L5.85 5.55 5.45 4.1 4.9 3.05 4.5 3.5 4.35 3.25 3.9 2.55 3.2 1.8 3.1 1.7 3.7 1.55 3.85 1.45 4.9 2.9 5.45 4.0 5.8 5.2 5.85 5.5 M3.45 7.75 L3.4 7.75 3.4 7.7 3.35 7.65 2.55 6.4 1.45 5.1 -0.25 3.5 -0.35 3.45 -2.3 2.05 -0.3 2.55 0.45 3.05 2.2 4.6 3.2 5.9 4.9 4.45 5.2 5.2 4.9 4.45 4.5 3.5 5.05 4.7 5.2 5.2 5.45 6.05 3.95 7.25 3.9 7.2 3.1 6.1 2.65 6.45 3.45 7.75 M2.65 6.45 L1.6 5.2 2.2 4.85 Q3.35 6.1 3.9 7.2 L3.2 5.9 3.9 7.2 Q3.35 6.1 2.2 4.85 L1.6 5.2 2.65 6.45" fill="#10cf03" fill-rule="evenodd" stroke="none"/>
      <path d="M5.85 5.55 L5.85 5.65 5.85 5.7 5.8 5.75 5.75 5.85 5.55 6.15 5.5 6.2 5.5 6.1 5.45 6.05 5.2 5.2 5.05 4.7 5.45 4.1 5.85 5.55 M4.0 7.35 L4.05 7.4 4.0 7.45 3.95 7.5 3.45 7.75 2.65 6.45 3.1 6.1 3.9 7.2 3.95 7.25 4.0 7.3 4.0 7.35" fill="#009103" fill-rule="evenodd" stroke="none"/>
      <path d="M5.8 5.8 L5.7 6.05 5.55 6.2 5.55 6.15 5.75 5.85 5.8 5.75 5.8 5.8 M5.45 4.1 L5.05 4.7 4.5 3.5 4.9 3.05 5.45 4.1" fill="#00b503" fill-rule="evenodd" stroke="none"/>
    </g>
  </defs>
</svg>
